; generated by PrusaSlicer 2.4.2 on 2022-09-14 at 18:31:24 UTC


;
;

;
;
; 

; external perimeters extrusion width = 0.45mm
; perimeters extrusion width = 0.45mm
; infill extrusion width = 0.45mm
; solid infill extrusion width = 0.45mm
; top infill extrusion width = 0.40mm
; first layer extrusion width = 0.42mm

M73 P0 R101
M201 X2500 Y2500 Z400 E5000 ; sets maximum accelerations, mm/sec^2
M203 X180 Y180 Z12 E80 ; sets maximum feedrates, mm / sec
M204 P1250 R1250 T2500 ; sets acceleration (P, T) and retract acceleration (R), mm/sec^2
M205 X8.00 Y8.00 Z2.00 E10.00 ; sets the jerk limits, mm/sec
M205 S0 T0 ; sets the minimum extruding and travel feed rate, mm/sec
M107
;TYPE:Custom
M862.3 P "MINI" ; printer model check
G90 ; use absolute coordinates
M83 ; extruder relative mode
M104 S170 ; set extruder temp for bed leveling
M140 S40 ; set bed temp
M109 R170 ; wait for bed leveling temp
M190 S40 ; wait for bed temp
M204 T1250 ; set travel acceleration
G28 ; home all without mesh bed level
G29 ; mesh bed leveling 
M204 T2500 ; restore travel acceleration
M104 S220 ; set extruder temp
G92 E0
G1 Y-2 X179 F2400
G1 Z3 F720
M109 S220 ; wait for extruder temp

; intro line
G1 X170 F1000
G1 Z0.2 F720
G1 X110 E8 F900
G1 X40 E10 F700
G92 E0

M221 S95 ; set flow
G21 ; set units to millimeters
G90 ; use absolute coordinates
M83 ; use relative distances for extrusion
M900 K0.2 ; Filament gcode
M107
;LAYER_CHANGE
;Z:0.2
;HEIGHT:0.2
;BEFORE_LAYER_CHANGE
G92 E0.0
;0.2


G1 E-3.2 F4200
G1 Z.2 F9000
;AFTER_LAYER_CHANGE
;0.2
G1 Z.4
G1 X10.048 Y75.706
G1 Z.2
G1 E3.2 F2400
M204 P800
;TYPE:Skirt/Brim
;WIDTH:0.42
G1 F1200
G1 X163.049 Y75.631 E4.79725
G1 X164.356 Y76.022 E.04278
G1 X165.233 Y77.068 E.04278
G1 X165.426 Y78.008 E.03008
G1 X165.426 Y108.008 E.94063
G1 X165.035 Y109.315 E.04278
G1 X163.989 Y110.191 E.04278
G1 X163.049 Y110.385 E.03008
G1 X10.048 Y110.31 E4.79725
G1 X8.741 Y109.918 E.04278
G1 X7.865 Y108.872 E.04278
G1 X7.672 Y107.933 E.03005
G1 X7.672 Y78.083 E.93593
G1 X8.064 Y76.776 E.04278
G1 X9.109 Y75.9 E.04278
G1 X9.989 Y75.718 E.02817
M204 P1250
; printing object reglet-Body.stl id:0 copy 0
G1 E-2.24 F4200
;WIPE_START
G1 F7200
G1 X11.635 Y75.717 E-.912
;WIPE_END
G1 E-.048 F4200
G1 Z.4 F9000
G1 X86.854 Y86.515
G1 Z.2
M73 P0 R100
G1 E3.2 F2400
M204 P800
;TYPE:Perimeter
G1 F1200
G1 X87.066 Y86.169 E.0127
G1 X87.27 Y85.98 E.00875
G1 X87.489 Y85.846 E.00805
G1 X87.731 Y85.758 E.00806
G1 X87.985 Y85.719 E.00805
G1 X88.242 Y85.732 E.00805
G1 X88.49 Y85.796 E.00805
G1 X88.722 Y85.907 E.00806
G1 X88.927 Y86.062 E.00806
G1 X89.097 Y86.255 E.00805
G1 X89.225 Y86.477 E.00805
G1 X89.307 Y86.721 E.00806
G1 X89.339 Y86.976 E.00805
G1 X89.32 Y87.232 E.00806
G1 X89.244 Y87.501 E.00875
G1 X89.033 Y87.846 E.0127
G1 X88.828 Y88.036 E.00875
G1 X88.609 Y88.17 E.00806
G1 X88.368 Y88.258 E.00805
G1 X88.113 Y88.296 E.00806
G1 X87.857 Y88.284 E.00805
G1 X87.608 Y88.22 E.00806
G1 X87.376 Y88.109 E.00805
G1 X87.172 Y87.954 E.00806
G1 X87.002 Y87.761 E.00806
G1 X86.873 Y87.539 E.00805
G1 X86.791 Y87.295 E.00806
G1 X86.76 Y87.04 E.00805
G1 X86.779 Y86.784 E.00806
G1 X86.838 Y86.573 E.00687
M204 P1250
G1 X87.152 Y86.85 F9000
M204 P800
;TYPE:External perimeter
G1 F1200
G1 X87.203 Y86.667 E.00594
G1 X87.36 Y86.41 E.00944
G1 X87.499 Y86.282 E.00594
G1 X87.654 Y86.187 E.00569
G1 X87.824 Y86.125 E.00569
G1 X88.004 Y86.098 E.00569
G1 X88.185 Y86.107 E.00569
G1 X88.361 Y86.152 E.00569
G1 X88.524 Y86.231 E.00569
G1 X88.669 Y86.34 E.00569
G1 X88.789 Y86.476 E.00569
G1 X88.88 Y86.633 E.00569
G1 X88.937 Y86.805 E.00569
G1 X88.96 Y86.985 E.00569
G1 X88.946 Y87.166 E.00569
G1 X88.895 Y87.348 E.00594
G1 X88.738 Y87.605 E.00944
G1 X88.599 Y87.734 E.00594
G1 X88.444 Y87.829 E.00569
G1 X88.274 Y87.891 E.00569
G1 X88.095 Y87.918 E.00569
G1 X87.913 Y87.909 E.00569
G1 X87.738 Y87.864 E.00569
G1 X87.574 Y87.785 E.00569
G1 X87.429 Y87.676 E.00569
G1 X87.309 Y87.54 E.00569
G1 X87.219 Y87.383 E.00569
G1 X87.161 Y87.211 E.00569
G1 X87.138 Y87.031 E.00569
G1 X87.147 Y86.91 E.00381
M204 P1250
G1 X87.007 Y86.728 F9000
G1 E-2.24 F4200
;WIPE_START
G1 F7200
G1 X87.203 Y86.667 E-.1377
G1 X87.36 Y86.41 E-.16687
G1 X87.499 Y86.282 E-.10496
G1 X87.654 Y86.187 E-.10054
G1 X87.824 Y86.125 E-.10058
G1 X88.004 Y86.098 E-.10052
G1 X88.185 Y86.107 E-.10055
G1 X88.36 Y86.152 E-.10029
;WIPE_END
G1 E-.048 F4200
G1 Z.4 F9000
G1 X92.002 Y83.761
G1 Z.2
G1 E3.2 F2400
M204 P800
;TYPE:Perimeter
G1 F1200
G1 X91.873 Y83.538 E.00805
G1 X91.791 Y83.295 E.00806
G1 X91.76 Y83.04 E.00805
G1 X91.779 Y82.784 E.00805
G1 X91.854 Y82.515 E.00875
G1 X92.066 Y82.169 E.0127
G1 X92.27 Y81.98 E.00875
G1 X92.489 Y81.846 E.00805
G1 X92.731 Y81.758 E.00806
G1 X92.985 Y81.719 E.00806
G1 X93.242 Y81.732 E.00805
G1 X93.49 Y81.796 E.00805
G1 X93.722 Y81.907 E.00806
G1 X93.927 Y82.062 E.00806
G1 X94.097 Y82.255 E.00805
G1 X94.225 Y82.477 E.00805
G1 X94.307 Y82.721 E.00805
G1 X94.339 Y82.976 E.00806
G1 X94.32 Y83.232 E.00805
G1 X94.244 Y83.501 E.00875
G1 X94.033 Y83.846 E.0127
G1 X93.828 Y84.036 E.00875
G1 X93.609 Y84.17 E.00806
G1 X93.368 Y84.258 E.00805
G1 X93.114 Y84.296 E.00805
G1 X92.857 Y84.284 E.00806
G1 X92.608 Y84.22 E.00806
G1 X92.376 Y84.109 E.00806
G1 X92.172 Y83.954 E.00805
G1 X92.041 Y83.806 E.00618
M204 P1250
G1 X92.309 Y83.54 F9000
M204 P800
;TYPE:External perimeter
G1 F1200
G1 X92.219 Y83.383 E.00569
G1 X92.161 Y83.211 E.00569
G1 X92.138 Y83.031 E.00569
G1 X92.152 Y82.85 E.00569
G1 X92.203 Y82.667 E.00594
G1 X92.36 Y82.41 E.00944
G1 X92.499 Y82.282 E.00594
G1 X92.654 Y82.187 E.00569
G1 X92.824 Y82.125 E.00569
G1 X93.004 Y82.098 E.00569
G1 X93.185 Y82.107 E.00569
G1 X93.361 Y82.152 E.00569
G1 X93.524 Y82.231 E.00569
G1 X93.669 Y82.34 E.00569
G1 X93.789 Y82.476 E.00569
G1 X93.88 Y82.633 E.00569
G1 X93.937 Y82.805 E.00569
G1 X93.96 Y82.985 E.00569
G1 X93.946 Y83.166 E.00569
G1 X93.895 Y83.348 E.00594
G1 X93.738 Y83.605 E.00944
G1 X93.599 Y83.734 E.00594
G1 X93.444 Y83.829 E.00569
G1 X93.274 Y83.891 E.00569
G1 X93.095 Y83.918 E.00569
G1 X92.913 Y83.909 E.00569
G1 X92.738 Y83.864 E.00569
G1 X92.574 Y83.785 E.00569
G1 X92.429 Y83.676 E.00569
G1 X92.349 Y83.585 E.00381
M204 P1250
G1 X92.129 Y83.558 F9000
G1 E-2.24 F4200
;WIPE_START
G1 F7200
G1 X92.219 Y83.383 E-.13326
G1 X92.161 Y83.211 E-.10058
G1 X92.138 Y83.031 E-.10051
G1 X92.152 Y82.85 E-.10055
G1 X92.203 Y82.667 E-.10496
G1 X92.36 Y82.41 E-.16686
G1 X92.499 Y82.282 E-.10496
G1 X92.654 Y82.187 E-.10031
;WIPE_END
G1 E-.048 F4200
G1 Z.4 F9000
G1 X96.854 Y86.515
G1 Z.2
G1 E3.2 F2400
M204 P800
;TYPE:Perimeter
G1 F1200
G1 X97.066 Y86.169 E.0127
G1 X97.27 Y85.98 E.00875
G1 X97.49 Y85.846 E.00806
G1 X97.731 Y85.758 E.00805
G1 X97.985 Y85.719 E.00805
G1 X98.241 Y85.732 E.00805
G1 X98.49 Y85.796 E.00805
G1 X98.722 Y85.907 E.00805
G1 X98.927 Y86.062 E.00806
G1 X99.097 Y86.255 E.00805
G1 X99.225 Y86.477 E.00805
G1 X99.307 Y86.721 E.00805
G1 X99.339 Y86.976 E.00805
G1 X99.32 Y87.232 E.00805
G1 X99.244 Y87.501 E.00875
G1 X99.033 Y87.846 E.0127
G1 X98.828 Y88.036 E.00875
G1 X98.609 Y88.17 E.00806
G1 X98.367 Y88.258 E.00805
G1 X98.113 Y88.296 E.00805
G1 X97.857 Y88.284 E.00805
G1 X97.608 Y88.22 E.00806
G1 X97.376 Y88.109 E.00805
G1 X97.172 Y87.954 E.00806
G1 X97.002 Y87.761 E.00806
G1 X96.873 Y87.538 E.00805
G1 X96.791 Y87.295 E.00805
G1 X96.76 Y87.04 E.00806
G1 X96.779 Y86.784 E.00806
G1 X96.838 Y86.573 E.00687
M204 P1250
G1 X97.203 Y86.667 F9000
M204 P800
;TYPE:External perimeter
G1 F1200
G1 X97.36 Y86.41 E.00944
G1 X97.499 Y86.282 E.00594
G1 X97.654 Y86.187 E.00569
G1 X97.824 Y86.125 E.00569
G1 X98.004 Y86.098 E.00569
G1 X98.185 Y86.107 E.00569
G1 X98.361 Y86.152 E.00569
G1 X98.524 Y86.23 E.00569
G1 X98.669 Y86.34 E.00569
G1 X98.789 Y86.476 E.00569
G1 X98.88 Y86.633 E.00569
G1 X98.937 Y86.805 E.00569
G1 X98.96 Y86.985 E.00569
G1 X98.946 Y87.166 E.00569
G1 X98.895 Y87.348 E.00594
G1 X98.738 Y87.605 E.00944
G1 X98.599 Y87.734 E.00594
G1 X98.444 Y87.829 E.00569
G1 X98.274 Y87.891 E.00569
G1 X98.095 Y87.918 E.00569
G1 X97.913 Y87.909 E.00569
G1 X97.737 Y87.864 E.00569
G1 X97.574 Y87.785 E.00569
G1 X97.429 Y87.676 E.00569
G1 X97.309 Y87.54 E.00569
G1 X97.219 Y87.383 E.00569
G1 X97.161 Y87.211 E.00569
G1 X97.138 Y87.031 E.00569
G1 X97.152 Y86.85 E.00569
G1 X97.187 Y86.725 E.00406
M204 P1250
G1 X97.028 Y86.423 F9000
G1 E-2.24 F4200
;WIPE_START
G1 F7200
G1 X97.36 Y86.41 E-.19907
G1 X97.499 Y86.282 E-.10497
G1 X97.654 Y86.187 E-.10057
G1 X97.824 Y86.125 E-.10054
G1 X98.004 Y86.098 E-.10051
G1 X98.185 Y86.107 E-.10054
G1 X98.361 Y86.152 E-.10055
G1 X98.524 Y86.23 E-.10054
G1 X98.531 Y86.236 E-.00471
;WIPE_END
G1 E-.048 F4200
G1 Z.4 F9000
G1 X102.002 Y83.761
G1 Z.2
G1 E3.2 F2400
M204 P800
;TYPE:Perimeter
G1 F1200
G1 X101.873 Y83.538 E.00806
G1 X101.791 Y83.295 E.00806
G1 X101.76 Y83.04 E.00805
G1 X101.779 Y82.784 E.00806
G1 X101.848 Y82.537 E.00806
G1 X101.966 Y82.308 E.00805
G1 X102.126 Y82.107 E.00805
G1 X102.323 Y81.942 E.00806
G1 X102.568 Y81.808 E.00875
G1 X102.963 Y81.718 E.0127
G1 X103.241 Y81.732 E.00875
G1 X103.49 Y81.796 E.00805
G1 X103.722 Y81.907 E.00806
G1 X103.927 Y82.062 E.00806
G1 X104.097 Y82.255 E.00805
G1 X104.225 Y82.477 E.00805
G1 X104.307 Y82.721 E.00806
G1 X104.342 Y82.998 E.00875
G1 X104.281 Y83.399 E.01271
G1 X104.166 Y83.653 E.00875
G1 X104.016 Y83.862 E.00805
G1 X103.828 Y84.036 E.00805
G1 X103.609 Y84.17 E.00806
G1 X103.367 Y84.258 E.00805
G1 X103.113 Y84.296 E.00806
G1 X102.857 Y84.284 E.00805
G1 X102.608 Y84.22 E.00805
G1 X102.376 Y84.109 E.00806
G1 X102.172 Y83.954 E.00805
G1 X102.041 Y83.806 E.00617
M204 P1250
G1 X102.309 Y83.54 F9000
M204 P800
;TYPE:External perimeter
G1 F1200
G1 X102.219 Y83.383 E.00569
G1 X102.161 Y83.211 E.00569
G1 X102.138 Y83.031 E.00569
G1 X102.152 Y82.85 E.00569
G1 X102.201 Y82.675 E.00569
G1 X102.284 Y82.514 E.00569
G1 X102.397 Y82.372 E.00569
G1 X102.536 Y82.255 E.00569
G1 X102.702 Y82.165 E.00594
G1 X102.996 Y82.098 E.00944
G1 X103.185 Y82.107 E.00594
G1 X103.361 Y82.152 E.00569
G1 X103.524 Y82.23 E.00569
G1 X103.669 Y82.34 E.00569
G1 X103.789 Y82.476 E.00569
G1 X103.88 Y82.633 E.00569
G1 X103.937 Y82.805 E.00569
G1 X103.961 Y82.993 E.00594
G1 X103.916 Y83.291 E.00944
G1 X103.838 Y83.464 E.00594
G1 X103.732 Y83.611 E.00569
G1 X103.599 Y83.734 E.00569
G1 X103.444 Y83.829 E.00569
G1 X103.274 Y83.891 E.00569
G1 X103.095 Y83.918 E.00569
G1 X102.913 Y83.909 E.00569
G1 X102.738 Y83.864 E.00569
G1 X102.574 Y83.785 E.00569
G1 X102.429 Y83.676 E.00569
G1 X102.349 Y83.585 E.00381
M204 P1250
G1 X102.129 Y83.558 F9000
G1 E-2.24 F4200
;WIPE_START
G1 F7200
G1 X102.219 Y83.383 E-.1333
G1 X102.161 Y83.211 E-.10055
G1 X102.138 Y83.031 E-.10052
G1 X102.152 Y82.85 E-.10057
G1 X102.201 Y82.675 E-.10055
G1 X102.284 Y82.514 E-.10054
G1 X102.397 Y82.372 E-.10052
G1 X102.536 Y82.255 E-.10057
G1 X102.655 Y82.19 E-.07488
;WIPE_END
G1 E-.048 F4200
G1 Z.4 F9000
G1 X106.817 Y86.617
G1 Z.2
G1 E3.2 F2400
M204 P800
;TYPE:Perimeter
G1 F1200
G1 X106.932 Y86.363 E.00875
G1 X107.082 Y86.154 E.00806
G1 X107.27 Y85.98 E.00805
G1 X107.49 Y85.846 E.00806
G1 X107.731 Y85.758 E.00805
G1 X107.985 Y85.719 E.00805
G1 X108.242 Y85.732 E.00806
G1 X108.49 Y85.796 E.00805
G1 X108.722 Y85.907 E.00806
G1 X108.927 Y86.062 E.00805
G1 X109.097 Y86.255 E.00805
G1 X109.225 Y86.477 E.00806
G1 X109.307 Y86.721 E.00805
G1 X109.342 Y86.998 E.00875
G1 X109.281 Y87.399 E.0127
G1 X109.166 Y87.653 E.00875
G1 X109.016 Y87.862 E.00806
G1 X108.828 Y88.036 E.00805
G1 X108.609 Y88.17 E.00806
G1 X108.367 Y88.258 E.00806
G1 X108.113 Y88.296 E.00806
G1 X107.857 Y88.284 E.00805
G1 X107.608 Y88.22 E.00806
G1 X107.376 Y88.109 E.00805
G1 X107.172 Y87.954 E.00806
G1 X107.002 Y87.761 E.00805
G1 X106.873 Y87.538 E.00805
G1 X106.791 Y87.295 E.00806
G1 X106.757 Y87.018 E.00875
G1 X106.808 Y86.677 E.01082
M204 P1250
G1 X107.26 Y86.552 F9000
M204 P800
;TYPE:External perimeter
G1 F1200
G1 X107.366 Y86.405 E.00569
G1 X107.499 Y86.282 E.00569
G1 X107.654 Y86.187 E.00569
G1 X107.824 Y86.125 E.00569
G1 X108.004 Y86.098 E.00569
G1 X108.185 Y86.107 E.00569
G1 X108.361 Y86.152 E.00569
G1 X108.524 Y86.231 E.00569
G1 X108.669 Y86.34 E.00569
G1 X108.789 Y86.476 E.00569
G1 X108.88 Y86.633 E.00569
G1 X108.937 Y86.805 E.00569
G1 X108.961 Y86.993 E.00594
G1 X108.916 Y87.291 E.00944
G1 X108.838 Y87.463 E.00594
G1 X108.732 Y87.611 E.00569
G1 X108.599 Y87.734 E.00569
G1 X108.444 Y87.829 E.00569
G1 X108.274 Y87.891 E.00569
G1 X108.095 Y87.918 E.00569
G1 X107.913 Y87.909 E.00569
G1 X107.738 Y87.864 E.00569
G1 X107.574 Y87.785 E.00569
G1 X107.429 Y87.676 E.00569
G1 X107.309 Y87.54 E.00569
G1 X107.219 Y87.383 E.00569
G1 X107.161 Y87.211 E.00569
G1 X107.137 Y87.023 E.00594
G1 X107.182 Y86.725 E.00944
G1 X107.235 Y86.607 E.00406
M204 P1250
G1 X107.166 Y86.397 F9000
G1 E-2.24 F4200
;WIPE_START
G1 F7200
G1 X107.366 Y86.405 E-.1333
G1 X107.499 Y86.282 E-.10053
G1 X107.654 Y86.187 E-.10058
G1 X107.824 Y86.125 E-.10053
G1 X108.004 Y86.098 E-.10054
G1 X108.185 Y86.107 E-.10056
G1 X108.361 Y86.152 E-.10053
G1 X108.524 Y86.231 E-.10056
G1 X108.632 Y86.312 E-.07487
;WIPE_END
G1 E-.048 F4200
G1 Z.4 F9000
G1 X112.002 Y83.761
G1 Z.2
G1 E3.2 F2400
M204 P800
;TYPE:Perimeter
G1 F1200
G1 X111.873 Y83.538 E.00805
G1 X111.791 Y83.295 E.00806
G1 X111.76 Y83.04 E.00805
G1 X111.779 Y82.784 E.00806
G1 X111.848 Y82.537 E.00806
G1 X111.966 Y82.308 E.00805
G1 X112.126 Y82.107 E.00805
G1 X112.323 Y81.942 E.00805
G1 X112.568 Y81.808 E.00875
G1 X112.963 Y81.718 E.0127
G1 X113.242 Y81.732 E.00875
G1 X113.49 Y81.796 E.00805
G1 X113.722 Y81.907 E.00806
G1 X113.927 Y82.062 E.00805
G1 X114.097 Y82.255 E.00805
G1 X114.225 Y82.477 E.00806
G1 X114.307 Y82.721 E.00805
G1 X114.342 Y82.998 E.00875
G1 X114.281 Y83.398 E.0127
G1 X114.166 Y83.653 E.00875
G1 X114.016 Y83.862 E.00806
G1 X113.828 Y84.036 E.00805
G1 X113.609 Y84.17 E.00806
G1 X113.367 Y84.258 E.00806
G1 X113.113 Y84.296 E.00806
G1 X112.857 Y84.284 E.00805
G1 X112.608 Y84.22 E.00806
G1 X112.376 Y84.109 E.00806
G1 X112.172 Y83.954 E.00805
G1 X112.041 Y83.806 E.00617
M204 P1250
G1 X112.309 Y83.54 F9000
M204 P800
;TYPE:External perimeter
G1 F1200
G1 X112.219 Y83.383 E.00569
G1 X112.161 Y83.211 E.00569
G1 X112.138 Y83.031 E.00569
G1 X112.152 Y82.85 E.00569
G1 X112.201 Y82.675 E.00569
G1 X112.284 Y82.514 E.00569
G1 X112.397 Y82.372 E.00569
G1 X112.536 Y82.255 E.00569
G1 X112.702 Y82.165 E.00594
G1 X112.996 Y82.098 E.00944
G1 X113.185 Y82.107 E.00594
G1 X113.361 Y82.152 E.00569
G1 X113.524 Y82.231 E.00569
G1 X113.669 Y82.34 E.00569
G1 X113.789 Y82.476 E.00569
G1 X113.88 Y82.633 E.00569
G1 X113.937 Y82.805 E.00569
G1 X113.961 Y82.993 E.00594
G1 X113.916 Y83.291 E.00944
G1 X113.838 Y83.463 E.00594
G1 X113.732 Y83.611 E.00569
G1 X113.599 Y83.734 E.00569
G1 X113.444 Y83.829 E.00569
G1 X113.274 Y83.891 E.00569
G1 X113.095 Y83.918 E.00569
G1 X112.913 Y83.909 E.00569
G1 X112.738 Y83.864 E.00569
G1 X112.574 Y83.785 E.00569
G1 X112.429 Y83.676 E.00569
G1 X112.349 Y83.585 E.00381
M204 P1250
G1 X112.129 Y83.558 F9000
G1 E-2.24 F4200
;WIPE_START
G1 F7200
G1 X112.219 Y83.383 E-.1333
G1 X112.161 Y83.211 E-.10055
G1 X112.138 Y83.031 E-.10053
G1 X112.152 Y82.85 E-.10055
G1 X112.201 Y82.675 E-.10056
G1 X112.284 Y82.514 E-.10055
G1 X112.397 Y82.372 E-.10053
G1 X112.536 Y82.255 E-.10055
G1 X112.655 Y82.19 E-.07488
;WIPE_END
G1 E-.048 F4200
G1 Z.4 F9000
G1 X117.14 Y86.09
G1 Z.2
G1 E3.2 F2400
M204 P800
;TYPE:Perimeter
G1 F1200
G1 X117.469 Y85.853 E.0127
G1 X117.731 Y85.758 E.00875
G1 X117.985 Y85.719 E.00805
G1 X118.242 Y85.732 E.00806
G1 X118.49 Y85.796 E.00805
G1 X118.722 Y85.907 E.00806
G1 X118.927 Y86.062 E.00805
G1 X119.097 Y86.255 E.00805
G1 X119.225 Y86.477 E.00805
G1 X119.307 Y86.721 E.00806
G1 X119.339 Y86.976 E.00805
G1 X119.32 Y87.232 E.00806
G1 X119.25 Y87.479 E.00805
G1 X119.133 Y87.708 E.00806
G1 X118.959 Y87.926 E.00875
G1 X118.63 Y88.163 E.0127
G1 X118.367 Y88.258 E.00875
G1 X118.113 Y88.296 E.00805
G1 X117.857 Y88.284 E.00806
G1 X117.608 Y88.22 E.00806
G1 X117.376 Y88.109 E.00805
G1 X117.172 Y87.954 E.00805
G1 X117.002 Y87.761 E.00805
G1 X116.873 Y87.538 E.00806
G1 X116.791 Y87.295 E.00806
G1 X116.76 Y87.04 E.00805
G1 X116.779 Y86.784 E.00806
G1 X116.848 Y86.537 E.00805
